X: 25
T: Toss The Feathers
Z: Fiddler3
S: https://thesession.org/tunes/138#setting51079
R: reel
M: 4/4
L: 1/8
K: Dmix
|:D2FD ADFD|ABcA GEcE|D2FD ADFA|d2ed cAGE
D2FD ADFD|ABcA GEDE|cABG A3B|1 d2ed cAGE:|2 d2ed cAGB||
|:Ad ~d2 Ad ~d2|Ad ~d2 ed^cd|eaag a3g|eaag ed^cd
efge afge|dfed cAGB|cABG A3B|1 d2ed cAGB:|2 d2ed cAGE||

